src/img/benefits-4.svg

<svg width="48" height="48" viewBox="0 0 48 48" fill="none" xmlns="http://www.w3.org/2000/svg">
<g opacity="0.9" clip-path="url(#clip0_1_388)">
<mask id="path-1-outside-1_1_388" maskUnits="userSpaceOnUse" x="-6.20328" y="-6.24183" width="60.1041" height="60.1041" fill="black">
<rect fill="white" x="-6.20328" y="-6.24183" width="60.1041" height="60.1041"/>
<path fill-rule="evenodd" clip-rule="evenodd" d="M1.70511 28.935L2.44958 28.1906C3.03256 27.6076 3.78468 27.2945 4.55004 27.2547L2.0271 24.7318C1.40366 24.1084 1.08863 23.2859 1.08794 22.4642L1.08695 22.4552L1.08562 22.4539C1.08794 21.6272 1.40031 20.8028 2.02538 20.1777L3.42111 18.782C4.04951 18.1536 4.87487 17.8403 5.69897 17.8406C6.52337 17.8392 7.34846 18.1536 7.97616 18.7813L14.8005 25.6056L25.6057 14.8004L18.7824 7.97648C18.156 7.35006 17.8433 6.52669 17.841 5.70197L17.8426 5.70031L17.8429 5.69733L17.8423 5.69136C17.8456 4.86697 18.1577 4.04621 18.7811 3.42276L20.1789 2.02499C20.8066 1.39724 21.631 1.08484 22.4545 1.08582C23.2782 1.08516 24.1039 1.3989 24.7316 2.0266L27.2553 4.55022C27.2967 3.78519 27.6078 3.03172 28.1891 2.45045L28.9335 1.70598C29.5613 1.07824 30.385 0.765181 31.2107 0.765206C32.0345 0.764542 32.8589 1.07693 33.4869 1.70497L36.7188 4.93685L37.4798 5.69534L42.3051 10.5207L43.0633 11.2814L46.2972 14.5153C46.9216 15.1398 47.2356 15.9658 47.2357 16.7902L47.2367 16.7945C47.2357 17.6166 46.9219 18.4424 46.2955 19.0688L45.551 19.8133C44.9697 20.3946 44.217 20.707 43.4513 20.7471L45.9749 23.2707C46.6016 23.8974 46.9137 24.7215 46.9147 25.5469L46.9133 25.5482C46.9123 26.3749 46.5997 27.1983 45.9748 27.8231L44.5771 29.2208C43.949 29.8489 43.1253 30.162 42.2992 30.1623C41.4761 30.1623 40.6527 29.8489 40.0247 29.2209L33.6803 22.8758L22.8759 33.6802L29.221 40.0253C29.8478 40.652 30.1605 41.4754 30.1608 42.3014L30.1591 42.3031C30.1604 43.1275 29.846 43.9526 29.2194 44.5792L27.8236 45.975C27.1969 46.6017 26.3721 46.9158 25.5475 46.9147C24.7244 46.9147 23.8993 46.603 23.2713 45.975L20.7477 43.4513C20.7066 44.218 20.3955 44.9695 19.8125 45.5525L19.068 46.2969C18.4416 46.9234 17.6159 47.2371 16.7935 47.2384C15.9691 47.237 15.1428 46.9233 14.5167 46.2972L11.2828 43.0633L10.5231 42.3031L5.69738 37.4781L4.93763 36.7189L1.70575 33.487C1.08231 32.8636 0.769642 32.0422 0.766916 31.2184L0.766917 31.2131L0.765259 31.2114L0.766917 31.2098C0.767248 30.3837 1.08097 29.5592 1.70511 28.935ZM2.78561 20.9358L4.18134 19.5401C4.60051 19.1209 5.15032 18.9133 5.69981 18.9143C6.25063 18.9127 6.80044 19.1222 7.21828 19.5401L28.4611 40.7829C28.8803 41.2021 29.0889 41.7509 29.0902 42.298L29.0885 42.303C29.0895 42.8512 28.8786 43.399 28.4595 43.8182L27.0637 45.2139C26.6462 45.6314 26.0961 45.8413 25.5469 45.8413C24.9968 45.8403 24.4476 45.6347 24.0284 45.2156L2.78561 23.9727C2.36711 23.5542 2.15686 23.0031 2.15985 22.4543L2.15819 22.4526C2.15853 21.9038 2.36678 21.3546 2.78561 20.9358ZM2.4645 29.6938L3.20897 28.9493C3.62616 28.5321 4.17663 28.3212 4.72678 28.3229C5.27626 28.3225 5.8264 28.5305 6.24424 28.9483L19.0538 41.7578C19.4706 42.1747 19.6795 42.7238 19.6815 43.2743L19.6799 43.276C19.6795 43.8248 19.4693 44.3753 19.0521 44.7924L18.3076 45.5369C17.8905 45.9541 17.3413 46.163 16.7925 46.1633C16.2404 46.163 15.6912 45.9547 15.2741 45.5375L2.46452 32.728C2.04503 32.3085 1.83645 31.759 1.83612 31.2135L1.83678 31.2076C1.83543 30.6598 2.04733 30.1109 2.4645 29.6938ZM28.9497 3.20853L29.6941 2.46405C30.1113 2.04687 30.6615 1.83631 31.212 1.83763C31.7608 1.83795 32.3116 2.04521 32.7294 2.46305L45.5389 15.2726C45.9558 15.6894 46.1647 16.2386 46.1667 16.7891L46.165 16.7907C46.1647 17.3396 45.9545 17.89 45.5373 18.3072L44.7928 19.0517C44.3753 19.4692 43.8252 19.6791 43.2763 19.6794C42.7259 19.6774 42.1767 19.4692 41.7595 19.052L28.95 6.24247C28.5305 5.82299 28.3203 5.27515 28.3216 4.72799L28.3206 4.72368C28.3206 4.17451 28.5318 3.62636 28.9497 3.20853ZM19.5405 4.18085L20.9383 2.78308C21.3554 2.36594 21.9052 2.15834 22.455 2.159C23.0042 2.15901 23.5557 2.36693 23.9735 2.78477L41.0005 19.8118L45.2167 24.0273C45.6358 24.4464 45.8441 24.9956 45.8457 25.5424L45.8441 25.5474C45.8438 26.0969 45.6335 26.644 45.2164 27.0612L43.8186 28.459C43.4011 28.8765 42.8506 29.0867 42.3018 29.0864C41.7516 29.0854 41.2025 28.8798 40.7833 28.4606L19.5405 7.21779C19.122 6.79928 18.9114 6.24847 18.9131 5.70098L18.9131 5.69766C18.9124 5.14982 19.1227 4.59869 19.5405 4.18085ZM15.739 26.1843L21.052 20.8713L26.3651 15.5582L32.922 22.1152L22.296 32.7413L15.739 26.1843Z"/>
</mask>
<path fill-rule="evenodd" clip-rule="evenodd" d="M1.70511 28.935L2.44958 28.1906C3.03256 27.6076 3.78468 27.2945 4.55004 27.2547L2.0271 24.7318C1.40366 24.1084 1.08863 23.2859 1.08794 22.4642L1.08695 22.4552L1.08562 22.4539C1.08794 21.6272 1.40031 20.8028 2.02538 20.1777L3.42111 18.782C4.04951 18.1536 4.87487 17.8403 5.69897 17.8406C6.52337 17.8392 7.34846 18.1536 7.97616 18.7813L14.8005 25.6056L25.6057 14.8004L18.7824 7.97648C18.156 7.35006 17.8433 6.52669 17.841 5.70197L17.8426 5.70031L17.8429 5.69733L17.8423 5.69136C17.8456 4.86697 18.1577 4.04621 18.7811 3.42276L20.1789 2.02499C20.8066 1.39724 21.631 1.08484 22.4545 1.08582C23.2782 1.08516 24.1039 1.3989 24.7316 2.0266L27.2553 4.55022C27.2967 3.78519 27.6078 3.03172 28.1891 2.45045L28.9335 1.70598C29.5613 1.07824 30.385 0.765181 31.2107 0.765206C32.0345 0.764542 32.8589 1.07693 33.4869 1.70497L36.7188 4.93685L37.4798 5.69534L42.3051 10.5207L43.0633 11.2814L46.2972 14.5153C46.9216 15.1398 47.2356 15.9658 47.2357 16.7902L47.2367 16.7945C47.2357 17.6166 46.9219 18.4424 46.2955 19.0688L45.551 19.8133C44.9697 20.3946 44.217 20.707 43.4513 20.7471L45.9749 23.2707C46.6016 23.8974 46.9137 24.7215 46.9147 25.5469L46.9133 25.5482C46.9123 26.3749 46.5997 27.1983 45.9748 27.8231L44.5771 29.2208C43.949 29.8489 43.1253 30.162 42.2992 30.1623C41.4761 30.1623 40.6527 29.8489 40.0247 29.2209L33.6803 22.8758L22.8759 33.6802L29.221 40.0253C29.8478 40.652 30.1605 41.4754 30.1608 42.3014L30.1591 42.3031C30.1604 43.1275 29.846 43.9526 29.2194 44.5792L27.8236 45.975C27.1969 46.6017 26.3721 46.9158 25.5475 46.9147C24.7244 46.9147 23.8993 46.603 23.2713 45.975L20.7477 43.4513C20.7066 44.218 20.3955 44.9695 19.8125 45.5525L19.068 46.2969C18.4416 46.9234 17.6159 47.2371 16.7935 47.2384C15.9691 47.237 15.1428 46.9233 14.5167 46.2972L11.2828 43.0633L10.5231 42.3031L5.69738 37.4781L4.93763 36.7189L1.70575 33.487C1.08231 32.8636 0.769642 32.0422 0.766916 31.2184L0.766917 31.2131L0.765259 31.2114L0.766917 31.2098C0.767248 30.3837 1.08097 29.5592 1.70511 28.935ZM2.78561 20.9358L4.18134 19.5401C4.60051 19.1209 5.15032 18.9133 5.69981 18.9143C6.25063 18.9127 6.80044 19.1222 7.21828 19.5401L28.4611 40.7829C28.8803 41.2021 29.0889 41.7509 29.0902 42.298L29.0885 42.303C29.0895 42.8512 28.8786 43.399 28.4595 43.8182L27.0637 45.2139C26.6462 45.6314 26.0961 45.8413 25.5469 45.8413C24.9968 45.8403 24.4476 45.6347 24.0284 45.2156L2.78561 23.9727C2.36711 23.5542 2.15686 23.0031 2.15985 22.4543L2.15819 22.4526C2.15853 21.9038 2.36678 21.3546 2.78561 20.9358ZM2.4645 29.6938L3.20897 28.9493C3.62616 28.5321 4.17663 28.3212 4.72678 28.3229C5.27626 28.3225 5.8264 28.5305 6.24424 28.9483L19.0538 41.7578C19.4706 42.1747 19.6795 42.7238 19.6815 43.2743L19.6799 43.276C19.6795 43.8248 19.4693 44.3753 19.0521 44.7924L18.3076 45.5369C17.8905 45.9541 17.3413 46.163 16.7925 46.1633C16.2404 46.163 15.6912 45.9547 15.2741 45.5375L2.46452 32.728C2.04503 32.3085 1.83645 31.759 1.83612 31.2135L1.83678 31.2076C1.83543 30.6598 2.04733 30.1109 2.4645 29.6938ZM28.9497 3.20853L29.6941 2.46405C30.1113 2.04687 30.6615 1.83631 31.212 1.83763C31.7608 1.83795 32.3116 2.04521 32.7294 2.46305L45.5389 15.2726C45.9558 15.6894 46.1647 16.2386 46.1667 16.7891L46.165 16.7907C46.1647 17.3396 45.9545 17.89 45.5373 18.3072L44.7928 19.0517C44.3753 19.4692 43.8252 19.6791 43.2763 19.6794C42.7259 19.6774 42.1767 19.4692 41.7595 19.052L28.95 6.24247C28.5305 5.82299 28.3203 5.27515 28.3216 4.72799L28.3206 4.72368C28.3206 4.17451 28.5318 3.62636 28.9497 3.20853ZM19.5405 4.18085L20.9383 2.78308C21.3554 2.36594 21.9052 2.15834 22.455 2.159C23.0042 2.15901 23.5557 2.36693 23.9735 2.78477L41.0005 19.8118L45.2167 24.0273C45.6358 24.4464 45.8441 24.9956 45.8457 25.5424L45.8441 25.5474C45.8438 26.0969 45.6335 26.644 45.2164 27.0612L43.8186 28.459C43.4011 28.8765 42.8506 29.0867 42.3018 29.0864C41.7516 29.0854 41.2025 28.8798 40.7833 28.4606L19.5405 7.21779C19.122 6.79928 18.9114 6.24847 18.9131 5.70098L18.9131 5.69766C18.9124 5.14982 19.1227 4.59869 19.5405 4.18085ZM15.739 26.1843L21.052 20.8713L26.3651 15.5582L32.922 22.1152L22.296 32.7413L15.739 26.1843Z" fill="#B01736"/>
<path fill-rule="evenodd" clip-rule="evenodd" d="M1.70511 28.935L2.44958 28.1906C3.03256 27.6076 3.78468 27.2945 4.55004 27.2547L2.0271 24.7318C1.40366 24.1084 1.08863 23.2859 1.08794 22.4642L1.08695 22.4552L1.08562 22.4539C1.08794 21.6272 1.40031 20.8028 2.02538 20.1777L3.42111 18.782C4.04951 18.1536 4.87487 17.8403 5.69897 17.8406C6.52337 17.8392 7.34846 18.1536 7.97616 18.7813L14.8005 25.6056L25.6057 14.8004L18.7824 7.97648C18.156 7.35006 17.8433 6.52669 17.841 5.70197L17.8426 5.70031L17.8429 5.69733L17.8423 5.69136C17.8456 4.86697 18.1577 4.04621 18.7811 3.42276L20.1789 2.02499C20.8066 1.39724 21.631 1.08484 22.4545 1.08582C23.2782 1.08516 24.1039 1.3989 24.7316 2.0266L27.2553 4.55022C27.2967 3.78519 27.6078 3.03172 28.1891 2.45045L28.9335 1.70598C29.5613 1.07824 30.385 0.765181 31.2107 0.765206C32.0345 0.764542 32.8589 1.07693 33.4869 1.70497L36.7188 4.93685L37.4798 5.69534L42.3051 10.5207L43.0633 11.2814L46.2972 14.5153C46.9216 15.1398 47.2356 15.9658 47.2357 16.7902L47.2367 16.7945C47.2357 17.6166 46.9219 18.4424 46.2955 19.0688L45.551 19.8133C44.9697 20.3946 44.217 20.707 43.4513 20.7471L45.9749 23.2707C46.6016 23.8974 46.9137 24.7215 46.9147 25.5469L46.9133 25.5482C46.9123 26.3749 46.5997 27.1983 45.9748 27.8231L44.5771 29.2208C43.949 29.8489 43.1253 30.162 42.2992 30.1623C41.4761 30.1623 40.6527 29.8489 40.0247 29.2209L33.6803 22.8758L22.8759 33.6802L29.221 40.0253C29.8478 40.652 30.1605 41.4754 30.1608 42.3014L30.1591 42.3031C30.1604 43.1275 29.846 43.9526 29.2194 44.5792L27.8236 45.975C27.1969 46.6017 26.3721 46.9158 25.5475 46.9147C24.7244 46.9147 23.8993 46.603 23.2713 45.975L20.7477 43.4513C20.7066 44.218 20.3955 44.9695 19.8125 45.5525L19.068 46.2969C18.4416 46.9234 17.6159 47.2371 16.7935 47.2384C15.9691 47.237 15.1428 46.9233 14.5167 46.2972L11.2828 43.0633L10.5231 42.3031L5.69738 37.4781L4.93763 36.7189L1.70575 33.487C1.08231 32.8636 0.769642 32.0422 0.766916 31.2184L0.766917 31.2131L0.765259 31.2114L0.766917 31.2098C0.767248 30.3837 1.08097 29.5592 1.70511 28.935ZM2.78561 20.9358L4.18134 19.5401C4.60051 19.1209 5.15032 18.9133 5.69981 18.9143C6.25063 18.9127 6.80044 19.1222 7.21828 19.5401L28.4611 40.7829C28.8803 41.2021 29.0889 41.7509 29.0902 42.298L29.0885 42.303C29.0895 42.8512 28.8786 43.399 28.4595 43.8182L27.0637 45.2139C26.6462 45.6314 26.0961 45.8413 25.5469 45.8413C24.9968 45.8403 24.4476 45.6347 24.0284 45.2156L2.78561 23.9727C2.36711 23.5542 2.15686 23.0031 2.15985 22.4543L2.15819 22.4526C2.15853 21.9038 2.36678 21.3546 2.78561 20.9358ZM2.4645 29.6938L3.20897 28.9493C3.62616 28.5321 4.17663 28.3212 4.72678 28.3229C5.27626 28.3225 5.8264 28.5305 6.24424 28.9483L19.0538 41.7578C19.4706 42.1747 19.6795 42.7238 19.6815 43.2743L19.6799 43.276C19.6795 43.8248 19.4693 44.3753 19.0521 44.7924L18.3076 45.5369C17.8905 45.9541 17.3413 46.163 16.7925 46.1633C16.2404 46.163 15.6912 45.9547 15.2741 45.5375L2.46452 32.728C2.04503 32.3085 1.83645 31.759 1.83612 31.2135L1.83678 31.2076C1.83543 30.6598 2.04733 30.1109 2.4645 29.6938ZM28.9497 3.20853L29.6941 2.46405C30.1113 2.04687 30.6615 1.83631 31.212 1.83763C31.7608 1.83795 32.3116 2.04521 32.7294 2.46305L45.5389 15.2726C45.9558 15.6894 46.1647 16.2386 46.1667 16.7891L46.165 16.7907C46.1647 17.3396 45.9545 17.89 45.5373 18.3072L44.7928 19.0517C44.3753 19.4692 43.8252 19.6791 43.2763 19.6794C42.7259 19.6774 42.1767 19.4692 41.7595 19.052L28.95 6.24247C28.5305 5.82299 28.3203 5.27515 28.3216 4.72799L28.3206 4.72368C28.3206 4.17451 28.5318 3.62636 28.9497 3.20853ZM19.5405 4.18085L20.9383 2.78308C21.3554 2.36594 21.9052 2.15834 22.455 2.159C23.0042 2.15901 23.5557 2.36693 23.9735 2.78477L41.0005 19.8118L45.2167 24.0273C45.6358 24.4464 45.8441 24.9956 45.8457 25.5424L45.8441 25.5474C45.8438 26.0969 45.6335 26.644 45.2164 27.0612L43.8186 28.459C43.4011 28.8765 42.8506 29.0867 42.3018 29.0864C41.7516 29.0854 41.2025 28.8798 40.7833 28.4606L19.5405 7.21779C19.122 6.79928 18.9114 6.24847 18.9131 5.70098L18.9131 5.69766C18.9124 5.14982 19.1227 4.59869 19.5405 4.18085ZM15.739 26.1843L21.052 20.8713L26.3651 15.5582L32.922 22.1152L22.296 32.7413L15.739 26.1843Z" stroke="#B01736" stroke-width="0.8" mask="url(#path-1-outside-1_1_388)"/>
</g>
<defs>
<clipPath id="clip0_1_388">
<rect width="48" height="48" fill="white"/>
</clipPath>
</defs>
</svg>

<svg xmlns="http://www.w3.org/2000/svg" id="benefits-4" width="48" height="48" fill="none"><g clip-path="url(#a)" opacity=".9"><mask id="b" width="60.104" height="60.104" x="-6.203" y="-6.242" fill="#000" maskUnits="userSpaceOnUse"><path fill="#fff" d="M-6.203-6.242h60.104v60.104H-6.203z"/><path fill-rule="evenodd" d="m1.705 28.935.745-.744a3.196 3.196 0 0 1 2.1-.936l-2.523-2.523a3.205 3.205 0 0 1-.94-2.268v-.009l-.001-.001a3.22 3.22 0 0 1 .94-2.276l1.395-1.396a3.21 3.21 0 0 1 2.278-.941 3.204 3.204 0 0 1 2.277.94l6.824 6.825L25.606 14.8l-6.824-6.824a3.217 3.217 0 0 1-.941-2.274l.002-.002V5.691a3.213 3.213 0 0 1 .938-2.268l1.398-1.398a3.202 3.202 0 0 1 2.276-.94c.823 0 1.649.314 2.277.942l2.523 2.523a3.205 3.205 0 0 1 .934-2.1l.744-.744a3.208 3.208 0 0 1 2.278-.94c.824-.001 1.648.31 2.276.939l3.232 3.232.76.758 4.826 4.826.758.76 3.234 3.234c.625.625.939 1.45.939 2.275v.005a3.215 3.215 0 0 1-.94 2.274l-.745.744a3.197 3.197 0 0 1-2.1.934l2.524 2.524c.627.626.939 1.45.94 2.276l-.002.001a3.21 3.21 0 0 1-.938 2.275l-1.398 1.398a3.21 3.21 0 0 1-2.278.941 3.206 3.206 0 0 1-2.274-.941l-6.345-6.345L22.876 33.68l6.345 6.345c.627.627.94 1.45.94 2.276l-.002.002a3.204 3.204 0 0 1-.94 2.276l-1.395 1.396a3.204 3.204 0 0 1-2.277.94 3.208 3.208 0 0 1-2.276-.94l-2.523-2.524a3.2 3.2 0 0 1-.936 2.102l-.744.744a3.22 3.22 0 0 1-4.551 0l-3.234-3.234-.76-.76-4.826-4.825-.76-.76-3.231-3.231a3.212 3.212 0 0 1-.94-2.269v-.008c.001-.826.315-1.65.94-2.275Zm1.08-8 1.396-1.395c.42-.42.97-.627 1.519-.626.55-.001 1.1.208 1.518.626l21.243 21.243c.42.42.628.968.63 1.515l-.003.005a2.132 2.132 0 0 1-.629 1.515l-1.395 1.396a2.14 2.14 0 0 1-1.517.627 2.141 2.141 0 0 1-1.519-.625L2.786 23.973a2.128 2.128 0 0 1-.626-1.519l-.002-.001c0-.55.209-1.098.628-1.517Zm-.32 8.759.744-.745a2.134 2.134 0 0 1 1.518-.626c.55 0 1.1.207 1.517.625l12.81 12.81c.417.417.626.966.628 1.516l-.002.002c0 .549-.21 1.1-.628 1.516l-.744.745a2.138 2.138 0 0 1-1.515.626 2.14 2.14 0 0 1-1.519-.625l-12.81-12.81a2.139 2.139 0 0 1-.628-1.515v-.005a2.131 2.131 0 0 1 .629-1.514ZM28.95 3.209l.744-.745a2.135 2.135 0 0 1 1.518-.626c.549 0 1.1.207 1.517.625l12.81 12.81c.417.416.626.966.628 1.516l-.002.002c0 .549-.21 1.099-.628 1.516l-.744.745a2.148 2.148 0 0 1-3.033 0L28.95 6.242a2.13 2.13 0 0 1-.628-1.514l-.001-.004c0-.55.21-1.098.629-1.515Zm-9.41.972 1.398-1.398a2.134 2.134 0 0 1 1.517-.624c.55 0 1.1.208 1.519.626L41 19.812l4.216 4.215c.419.42.627.969.629 1.515l-.002.005c0 .55-.21 1.097-.628 1.514L43.82 28.46a2.14 2.14 0 0 1-1.517.627 2.14 2.14 0 0 1-1.519-.625L19.541 7.218a2.134 2.134 0 0 1-.628-1.517v-.003c0-.548.21-1.1.628-1.517ZM15.74 26.184l5.313-5.313 5.313-5.313 6.557 6.557-10.626 10.626-6.557-6.557Z" clip-rule="evenodd"/></mask><path fill="#B01736" fill-rule="evenodd" d="m1.705 28.935.745-.744a3.196 3.196 0 0 1 2.1-.936l-2.523-2.523a3.205 3.205 0 0 1-.94-2.268v-.009l-.001-.001a3.22 3.22 0 0 1 .94-2.276l1.395-1.396a3.21 3.21 0 0 1 2.278-.941 3.204 3.204 0 0 1 2.277.94l6.824 6.825L25.606 14.8l-6.824-6.824a3.217 3.217 0 0 1-.941-2.274l.002-.002V5.691a3.213 3.213 0 0 1 .938-2.268l1.398-1.398a3.202 3.202 0 0 1 2.276-.94c.823 0 1.649.314 2.277.942l2.523 2.523a3.205 3.205 0 0 1 .934-2.1l.744-.744a3.208 3.208 0 0 1 2.278-.94c.824-.001 1.648.31 2.276.939l3.232 3.232.76.758 4.826 4.826.758.76 3.234 3.234c.625.625.939 1.45.939 2.275v.005a3.215 3.215 0 0 1-.94 2.274l-.745.744a3.197 3.197 0 0 1-2.1.934l2.524 2.524c.627.626.939 1.45.94 2.276l-.002.001a3.21 3.21 0 0 1-.938 2.275l-1.398 1.398a3.21 3.21 0 0 1-2.278.941 3.206 3.206 0 0 1-2.274-.941l-6.345-6.345L22.876 33.68l6.345 6.345c.627.627.94 1.45.94 2.276l-.002.002a3.204 3.204 0 0 1-.94 2.276l-1.395 1.396a3.204 3.204 0 0 1-2.277.94 3.208 3.208 0 0 1-2.276-.94l-2.523-2.524a3.2 3.2 0 0 1-.936 2.102l-.744.744a3.22 3.22 0 0 1-4.551 0l-3.234-3.234-.76-.76-4.826-4.825-.76-.76-3.231-3.231a3.212 3.212 0 0 1-.94-2.269v-.008c.001-.826.315-1.65.94-2.275Zm1.08-8 1.396-1.395c.42-.42.97-.627 1.519-.626.55-.001 1.1.208 1.518.626l21.243 21.243c.42.42.628.968.63 1.515l-.003.005a2.132 2.132 0 0 1-.629 1.515l-1.395 1.396a2.14 2.14 0 0 1-1.517.627 2.141 2.141 0 0 1-1.519-.625L2.786 23.973a2.128 2.128 0 0 1-.626-1.519l-.002-.001c0-.55.209-1.098.628-1.517Zm-.32 8.759.744-.745a2.134 2.134 0 0 1 1.518-.626c.55 0 1.1.207 1.517.625l12.81 12.81c.417.417.626.966.628 1.516l-.002.002c0 .549-.21 1.1-.628 1.516l-.744.745a2.138 2.138 0 0 1-1.515.626 2.14 2.14 0 0 1-1.519-.625l-12.81-12.81a2.139 2.139 0 0 1-.628-1.515v-.005a2.131 2.131 0 0 1 .629-1.514ZM28.95 3.209l.744-.745a2.135 2.135 0 0 1 1.518-.626c.549 0 1.1.207 1.517.625l12.81 12.81c.417.416.626.966.628 1.516l-.002.002c0 .549-.21 1.099-.628 1.516l-.744.745a2.148 2.148 0 0 1-3.033 0L28.95 6.242a2.13 2.13 0 0 1-.628-1.514l-.001-.004c0-.55.21-1.098.629-1.515Zm-9.41.972 1.398-1.398a2.134 2.134 0 0 1 1.517-.624c.55 0 1.1.208 1.519.626L41 19.812l4.216 4.215c.419.42.627.969.629 1.515l-.002.005c0 .55-.21 1.097-.628 1.514L43.82 28.46a2.14 2.14 0 0 1-1.517.627 2.14 2.14 0 0 1-1.519-.625L19.541 7.218a2.134 2.134 0 0 1-.628-1.517v-.003c0-.548.21-1.1.628-1.517ZM15.74 26.184l5.313-5.313 5.313-5.313 6.557 6.557-10.626 10.626-6.557-6.557Z" clip-rule="evenodd"/><path stroke="#B01736" stroke-width=".8" d="m1.705 28.935.745-.744a3.196 3.196 0 0 1 2.1-.936l-2.523-2.523a3.205 3.205 0 0 1-.94-2.268v-.009l-.001-.001a3.22 3.22 0 0 1 .94-2.276l1.395-1.396a3.21 3.21 0 0 1 2.278-.941 3.204 3.204 0 0 1 2.277.94l6.824 6.825L25.606 14.8l-6.824-6.824a3.217 3.217 0 0 1-.941-2.274l.002-.002V5.691a3.213 3.213 0 0 1 .938-2.268l1.398-1.398a3.202 3.202 0 0 1 2.276-.94c.823 0 1.649.314 2.277.942l2.523 2.523a3.205 3.205 0 0 1 .934-2.1l.744-.744a3.208 3.208 0 0 1 2.278-.94c.824-.001 1.648.31 2.276.939l3.232 3.232.76.758 4.826 4.826.758.76 3.234 3.234c.625.625.939 1.45.939 2.275v.005a3.215 3.215 0 0 1-.94 2.274l-.745.744a3.197 3.197 0 0 1-2.1.934l2.524 2.524c.627.626.939 1.45.94 2.276l-.002.001a3.21 3.21 0 0 1-.938 2.275l-1.398 1.398a3.21 3.21 0 0 1-2.278.941 3.206 3.206 0 0 1-2.274-.941l-6.345-6.345L22.876 33.68l6.345 6.345c.627.627.94 1.45.94 2.276l-.002.002a3.204 3.204 0 0 1-.94 2.276l-1.395 1.396a3.204 3.204 0 0 1-2.277.94 3.208 3.208 0 0 1-2.276-.94l-2.523-2.524a3.2 3.2 0 0 1-.936 2.102l-.744.744a3.22 3.22 0 0 1-4.551 0l-3.234-3.234-.76-.76-4.826-4.825-.76-.76-3.231-3.231a3.212 3.212 0 0 1-.94-2.269v-.008c.001-.826.315-1.65.94-2.275Zm1.08-8 1.396-1.395c.42-.42.97-.627 1.519-.626.55-.001 1.1.208 1.518.626l21.243 21.243c.42.42.628.968.63 1.515l-.003.005a2.132 2.132 0 0 1-.629 1.515l-1.395 1.396a2.14 2.14 0 0 1-1.517.627 2.141 2.141 0 0 1-1.519-.625L2.786 23.973a2.128 2.128 0 0 1-.626-1.519l-.002-.001c0-.55.209-1.098.628-1.517Zm-.32 8.759.744-.745a2.134 2.134 0 0 1 1.518-.626c.55 0 1.1.207 1.517.625l12.81 12.81c.417.417.626.966.628 1.516l-.002.002c0 .549-.21 1.1-.628 1.516l-.744.745a2.138 2.138 0 0 1-1.515.626 2.14 2.14 0 0 1-1.519-.625l-12.81-12.81a2.139 2.139 0 0 1-.628-1.515v-.005a2.131 2.131 0 0 1 .629-1.514ZM28.95 3.209l.744-.745a2.135 2.135 0 0 1 1.518-.626c.549 0 1.1.207 1.517.625l12.81 12.81c.417.416.626.966.628 1.516l-.002.002c0 .549-.21 1.099-.628 1.516l-.744.745a2.148 2.148 0 0 1-3.033 0L28.95 6.242a2.13 2.13 0 0 1-.628-1.514l-.001-.004c0-.55.21-1.098.629-1.515Zm-9.41.972 1.398-1.398a2.134 2.134 0 0 1 1.517-.624c.55 0 1.1.208 1.519.626L41 19.812l4.216 4.215c.419.42.627.969.629 1.515l-.002.005c0 .55-.21 1.097-.628 1.514L43.82 28.46a2.14 2.14 0 0 1-1.517.627 2.14 2.14 0 0 1-1.519-.625L19.541 7.218a2.134 2.134 0 0 1-.628-1.517v-.003c0-.548.21-1.1.628-1.517ZM15.74 26.184l5.313-5.313 5.313-5.313 6.557 6.557-10.626 10.626-6.557-6.557Z" clip-rule="evenodd" mask="url(#b)"/></g><defs><clipPath id="a"><path fill="#fff" d="M0 0h48v48H0z"/></clipPath></defs></svg>
